X:1
T:Jesus Calls Us O'er the Tumult
T:Text: Cecil F. Alexander (1818-1895) Tune: William H. Jude (1851-1922)
T:87 87 GALILEE www.hymnary.org/text/jesus_calls_us_oer_the_tumult
T:Jesus Calls Us O'er the Tumult
T:This hymn is in the public domain.  You may freely use this score for personal and congregational worship.  If you reproduce the score, please credit Hymnary.org as the source. 
T:This hymn is in the public domain.  You may freely use this score for personal and congregational worship.  If you reproduce the score, please credit Hymnary.org as the source. 
Z:This hymn is in the public domain.  You may freely use this score for personal and congregational worship.  If you reproduce the score, please credit Hymnary.org as the source.
%%score ( 1 2 ) ( 3 4 )
L:1/8
M:3/4
K:Ab
V:1 treble nm="Piano" snm="Pno."
V:2 treble 
V:3 bass nm="Piano" snm="Pno."
V:4 bass 
V:1
 [Cc][CE] | [DB]2 [DB]2 BE | [CA]2 [CA]2 [EA][EA] | [FA]3 F [FA][FB] | [=Ec]4 cF | %5
w: 3~In our|joys and in our|sor- rows, days of|toil and hours of|ease, still he|
w: 1~Je- sus|calls us o'er the|tu- mult of our|life's wild, re- stless|sea; day by|
w: 2~Je- sus|calls us from the|wor- ship of the|vain world's gol- den|store, from each|
 [=DB]2 [DB]2 BE | [CA]2 [CA]2 [Ec][Ec] | [Dd]2 [DF]2 [Ec][DB] | [CA]4 |] %9
w: calls, in cares and|plea- sures, "Chris- tian,|love me more than|these."|
w: day his sweet voice|sound- eth, sa- ying,|"Chris- tian, fol- low|me."|
w: i- dol that would|keep us, sa- ying,|"Chris- tian, love me|more."|
V:2
 x2 | x4 DD | x6 | x3 F x2 | x4 F=E | x4 E_D | x6 | x6 | x4 |] %9
V:3
 [A,,A,][A,,A,] | [E,G,]2 [E,G,]2 [E,G,][E,B,] | [A,,A,]2 [A,,A,]2 [C,A,][C,A,] | %3
 [D,A,]3 [D,A,] [D,F,][D,F,] | [C,G,]4 [F,=A,][F,C] | [B,,B,]2 [B,,B,]2 [E,G,][E,B,] | %6
 [A,,A,]2 [A,,A,]2 A,A, | [F,A,]2 [F,A,]2 [E,G,][E,G,] | [A,,A,]4 |] %9
V:4
 x2 | x6 | x6 | x6 | x6 | x6 | x4 A,_G, | x6 | x4 |] %9

